X: 3
T: Reel des Accorde\'onistes
I: RJ R-124 D reel
C: Marcel Messervier
M: C|
R: reel
K: D
FG |\
"D"A2df "G"edcB | "A7"ABAG "D"F2EF | "Em"GAGF "(A7)"EBBB | "A7"ABAG "D"FDFG ||\
"D"A2df "G"edcB |
"A7"ABAG "D"F2EF | "Em"GFEF "A7"GABc | "D"df"A7"ec "D"d2 :: A2 |\
"G"B{c}B GB d2cB | "D"A{B}A FA dAFA |
"A7"GECE A,ECE | "D"DEFG "D7"A2FA ||\
"G"B{c}B GB d2cB | "D"A{B}A FA d2cd | "Em"efed "A7"cBAG | FABc "D"d2 :|
% text 03/24/99

